X: 112
T:Foliada de Padrenda
M:3/4
L:1/8
Q:250
C:Trad.
S:Rep. Ricardo Portela
R:Foliada
K:C
C3E | G"F."cGF G"F."c| G2 C2"F."GC |F"F."cFE F2- | F2 B,3D |F"F."cFE F2
|D2 G2{A}GF |
E2{F}EDC2- |1 C"F."G :|2 C6- |
K:CMin
C2 GAB2 |A2G2A2 |G"F."cGFG2-| G6- | G"F."cGA B2 | A2G2B2 |
A2{B}AGF2- | F6- | F2 GAB2 | A2G2A2 |G"F."cGFG2 |AG "~"=E2 "~"D2 | C"F."
G C2F2- | F2 "~"D2 "~"C2|
=B,2"~"D2 C2- | C6- | C2 GAB2 |A2G2A2 |G"F."cGFG2 |AG "~"=E2"~"D2 C"F."G
 C2F2-| F2 "~"D2 "~"C2 |
=B,2 "~"D2C2-| C"F."G 

